Dominus_Dark_Funeral/22/apps/linssid48.svg

<svg xmlns="http://www.w3.org/2000/svg" width="24" height="24"><defs><linearGradient id="a"><stop offset="0"/><stop offset="1" stop-opacity="0"/></linearGradient></defs><path d="M16.8.91l-.86 1.74a7.73 7.73 0 0 1 4.28 6.9 7.73 7.73 0 0 1-4.28 6.92l.86 1.72a9.67 9.67 0 0 0 5.35-8.63A9.67 9.67 0 0 0 16.8.9zM7.2.92a9.67 9.67 0 0 0-5.35 8.64 9.67 9.67 0 0 0 5.34 8.64l.87-1.73a7.73 7.73 0 0 1-4.28-6.91 7.73 7.73 0 0 1 4.28-6.91zm7.87 3.45l-.86 1.74a3.87 3.87 0 0 1 2.14 3.45 3.87 3.87 0 0 1-2.14 3.46l.86 1.71a5.8 5.8 0 0 0 3.2-5.17 5.8 5.8 0 0 0-3.2-5.2zm-6.15 0a5.8 5.8 0 0 0-3.2 5.19 5.8 5.8 0 0 0 3.2 5.19L9.78 13a3.87 3.87 0 0 1-2.14-3.45A3.87 3.87 0 0 1 9.78 6.1zM12 7.14a2.41 2.41 0 0 0-2.42 2.42 2.41 2.41 0 0 0 1.45 2.21v11.24a9.67 13.31 0 0 0 .97.08 9.67 13.31 0 0 0 .96-.07V11.77a2.41 2.41 0 0 0 1.45-2.21A2.41 2.41 0 0 0 12 7.14z" fill="#e6e6e6"/></svg>

<?xml version="1.0" encoding="UTF-8" standalone="no"?>
<svg
   xmlns:dc="http://purl.org/dc/elements/1.1/"
   xmlns:cc="http://creativecommons.org/ns#"
   xmlns:rdf="http://www.w3.org/1999/02/22-rdf-syntax-ns#"
   xmlns:svg="http://www.w3.org/2000/svg"
   xmlns="http://www.w3.org/2000/svg"
   xmlns:sodipodi="http://sodipodi.sourceforge.net/DTD/sodipodi-0.dtd"
   xmlns:inkscape="http://www.inkscape.org/namespaces/inkscape"
   width="24"
   height="24"
   version="1.1"
   id="svg11"
   sodipodi:docname="linssid48.svg"
   inkscape:version="0.92.4 (5da689c313, 2019-01-14)">
  <metadata
     id="metadata15">
    <rdf:RDF>
      <cc:Work
         rdf:about="">
        <dc:format>image/svg+xml</dc:format>
        <dc:type
           rdf:resource="http://purl.org/dc/dcmitype/StillImage" />
        <dc:title></dc:title>
      </cc:Work>
    </rdf:RDF>
  </metadata>
  <sodipodi:namedview
     pagecolor="#ffffff"
     bordercolor="#666666"
     borderopacity="1"
     objecttolerance="10"
     gridtolerance="10"
     guidetolerance="10"
     inkscape:pageopacity="0"
     inkscape:pageshadow="2"
     inkscape:window-width="1138"
     inkscape:window-height="480"
     id="namedview13"
     showgrid="false"
     inkscape:zoom="9.8333333"
     inkscape:cx="1.0677966"
     inkscape:cy="12"
     inkscape:window-x="0"
     inkscape:window-y="25"
     inkscape:window-maximized="0"
     inkscape:current-layer="svg11" />
  <defs
     id="defs7">
    <linearGradient
       id="a">
      <stop
         offset="0"
         id="stop2" />
      <stop
         offset="1"
         stop-opacity="0"
         id="stop4" />
    </linearGradient>
  </defs>
  <path
     d="m 16.8,0.91 -0.86,1.74 a 7.73,7.73 0 0 1 4.28,6.9 7.73,7.73 0 0 1 -4.28,6.92 l 0.86,1.72 A 9.67,9.67 0 0 0 22.15,9.56 9.67,9.67 0 0 0 16.8,0.9 Z M 7.2,0.92 A 9.67,9.67 0 0 0 1.85,9.56 9.67,9.67 0 0 0 7.19,18.2 L 8.06,16.47 A 7.73,7.73 0 0 1 3.78,9.56 7.73,7.73 0 0 1 8.06,2.65 Z m 7.87,3.45 -0.86,1.74 a 3.87,3.87 0 0 1 2.14,3.45 3.87,3.87 0 0 1 -2.14,3.46 l 0.86,1.71 a 5.8,5.8 0 0 0 3.2,-5.17 5.8,5.8 0 0 0 -3.2,-5.2 z m -6.15,0 a 5.8,5.8 0 0 0 -3.2,5.19 5.8,5.8 0 0 0 3.2,5.19 L 9.78,13 A 3.87,3.87 0 0 1 7.64,9.55 3.87,3.87 0 0 1 9.78,6.1 Z M 12,7.14 a 2.41,2.41 0 0 0 -2.42,2.42 2.41,2.41 0 0 0 1.45,2.21 V 23.01 A 9.67,13.31 0 0 0 12,23.09 9.67,13.31 0 0 0 12.96,23.02 V 11.77 A 2.41,2.41 0 0 0 14.41,9.56 2.41,2.41 0 0 0 12,7.14 Z"
     id="path9"
     inkscape:connector-curvature="0"
     style="fill:#e6e6e6" />
</svg>
